X:1
T:Title
%%score 1 { 2 | 3 }
L:1/8
Q:1/4=96
M:3/4
K:E
V:1 treble nm="Grand Piano, Soprano"
V:2 bass nm="Choir Pad, Copacabana, 87.87 D"
V:3 bass 
V:1
 E[EF] [EG]3 [EF] | [EG][FA] [Ac]2 [GB]2 | [GB][GB] [GB]3 [GB] | [EG]E [DF]4 | E[EF] [EG]3 [EF] | %5
w: By~C.~M.~Ward,~1896 * * *|||||
 [EG][FA] [Ac]2 [GB]2 | [GB][Ge] [Fd]3 [Ec] | [EB][E^A] [DB]4 | [DF][EG] [FA]2 [DF]2 | %9
w: ||||
 [EG][FA] [GB]2 [EG]2 | [GB][Ac] [GB]3 [GB] | [EG]E [DF]4 | [EG][FA] [GB]3 [Ge] | %13
w: ||||
 [Bd][Ac] [Ac]2 [GB]2 | E[EF] [EG]3 [FA] | [EG][DF] E4- | E4 z2 |] %17
w: ||||
V:2
 G,A, B,3 ^A, | B,B,[K:treble] E2 E2 | EE E3 E | B,G, B,4 | G,A, B,3 ^A, | B,B,[K:treble] E2 E2 | %6
 EB, B,3[K:bass] ^A, | B,F, F,4 | B,B, B,2 B,2 | B,B,[K:treble] E2 B,2 | EE E3 E | B,G, B,4 | %12
 B,B,[K:treble] E3 E | EE E2 E2 | G,A, B,3 C | B,A, G,4- | G,4 z2 |] %17
V:3
 E,E, E,3 E, | E,E, E,2 E,2 | E,E, E,3 E, | E,E, B,,4 | E,E, E,3 E, | E,E, E,2 E,2 | E,E, F,3 F, | %7
 .F,2 B,,4 | B,,B,, B,,2 B,,2 | E,E, E,2 E,2 | E,E, E,3 E, | E,E, B,,4 | E,E, E,3 E, | %13
 E,E, E,2 E,2 | E,E, E,3 A,, | B,,B,, E,4- | E,4 z2 |] %17

